austria/municipalities/41741.svg

<?xml version="1.0" encoding="UTF-8"?>
<!DOCTYPE svg PUBLIC "-//W3C//DTD SVG 1.1//EN" "http://www.w3.org/Graphics/SVG/1.1/DTD/svg11.dtd">
<svg xmlns="http://www.w3.org/2000/svg" version="1.1" width="166px" height="207px" style="shape-rendering:geometricPrecision; text-rendering:geometricPrecision; image-rendering:optimizeQuality; fill-rule:evenodd; clip-rule:evenodd" xmlns:xlink="http://www.w3.org/1999/xlink">
<g><path style="opacity:1" fill="#000000" d="M -0.5,-0.5 C 54.8333,-0.5 110.167,-0.5 165.5,-0.5C 165.5,44.1667 165.5,88.8333 165.5,133.5C 157.475,172.524 134.142,196.858 95.5,206.5C 86.8333,206.5 78.1667,206.5 69.5,206.5C 30.0061,196.67 6.67281,171.67 -0.5,131.5C -0.5,87.5 -0.5,43.5 -0.5,-0.5 Z"/></g>
<g><path style="opacity:1" fill="#e10a15" d="M 3.5,3.5 C 56.1667,3.5 108.833,3.5 161.5,3.5C 161.667,29.5021 161.5,55.5021 161,81.5C 158.056,80.7434 155.056,80.0767 152,79.5C 144.142,81.0043 136.642,83.5043 129.5,87C 118.052,98.7876 105.719,109.454 92.5,119C 87.8333,119.667 83.1667,119.667 78.5,119C 67.0015,112.542 54.6682,109.042 41.5,108.5C 28.5446,109.489 16.2112,112.822 4.5,118.5C 3.5001,80.1725 3.16677,41.8391 3.5,3.5 Z"/></g>
<g><path style="opacity:1" fill="#010000" d="M 99.5,9.5 C 101.922,10.6923 102.922,12.6923 102.5,15.5C 101.934,20.1594 101.434,24.8261 101,29.5C 100.308,30.0253 99.8076,30.6919 99.5,31.5C 106.538,31.1563 112.538,33.323 117.5,38C 128.712,36.4595 138.545,39.2929 147,46.5C 151.302,51.5066 152.469,57.1732 150.5,63.5C 148.872,60.4134 146.872,57.58 144.5,55C 139.112,52.7907 133.612,50.9574 128,49.5C 124.078,47.7454 120.911,45.0788 118.5,41.5C 112.049,40.7597 105.716,39.9264 99.5,39C 101.053,41.6549 102.22,44.4883 103,47.5C 104.681,56.7119 103.348,65.3786 99,73.5C 93.1496,78.7088 88.6496,84.8755 85.5,92C 88.6976,92.8544 91.5309,91.6878 94,88.5C 97.5191,81.6206 100.852,74.6206 104,67.5C 112.801,59.6138 122.968,57.1138 134.5,60C 139.365,62.0317 142.698,65.5317 144.5,70.5C 144,70.8333 143.5,71.1667 143,71.5C 133.83,68.3974 125.83,70.3974 119,77.5C 113.893,85.9402 107.393,93.1069 99.5,99C 95.0783,101.104 90.4116,101.937 85.5,101.5C 86.64,105.099 87.14,108.766 87,112.5C 85.3005,113.406 83.4672,113.739 81.5,113.5C 79.1187,107.088 77.952,100.422 78,93.5C 78.6701,89.9894 79.8368,86.6561 81.5,83.5C 86.218,77.9552 90.718,72.2885 95,66.5C 96.3841,60.8913 96.7175,55.2247 96,49.5C 94.6579,56.2425 92.3246,62.5759 89,68.5C 84.6783,74.5009 79.0116,78.5009 72,80.5C 62.9922,78.9908 58.4922,73.6575 58.5,64.5C 60.1557,52.6625 65.8224,43.1625 75.5,36C 70.4808,37.914 65.1475,38.914 59.5,39C 54.8621,43.6543 49.5288,47.321 43.5,50C 40.0416,54.7939 36.2082,59.2939 32,63.5C 30.4597,61.0454 30.1264,58.3787 31,55.5C 36.2238,41.931 46.0571,35.0976 60.5,35C 67.732,27.3181 76.3986,25.1514 86.5,28.5C 86.2978,26.0108 86.7978,23.6775 88,21.5C 92.0094,17.6575 95.8427,13.6575 99.5,9.5 Z"/></g>
<g><path style="opacity:1" fill="#fea700" d="M 99.5,11.5 C 100.814,17.1051 100.48,22.7718 98.5,28.5C 95.9384,24.3585 92.7717,23.6918 89,26.5C 88.4795,24.7111 88.8129,23.0444 90,21.5C 94.0681,18.9342 97.2348,15.6009 99.5,11.5 Z"/></g>
<g><path style="opacity:1" fill="#fea700" d="M 91.5,26.5 C 97.2934,27.4221 98.6267,30.2555 95.5,35C 88.3432,34.7058 87.0099,31.8725 91.5,26.5 Z"/></g>
<g><path style="opacity:1" fill="#fea700" d="M 73.5,28.5 C 77.7174,28.5893 81.7174,29.4226 85.5,31C 79.5711,30.8658 74.2378,32.5324 69.5,36C 66.8333,36.6667 64.1667,36.6667 61.5,36C 65.093,32.711 69.093,30.211 73.5,28.5 Z"/></g>
<g><path style="opacity:1" fill="#fea700" d="M 80.5,34.5 C 81.2389,34.369 81.9056,34.5357 82.5,35C 79.6053,39.2901 77.1053,43.7901 75,48.5C 71.9582,51.7106 68.7915,54.7106 65.5,57.5C 70.153,60.06 74.8197,59.8933 79.5,57C 84.3671,52.4677 88.8671,47.6344 93,42.5C 94.3831,58.3993 88.2165,70.2326 74.5,78C 68.5599,79.4187 64.3933,77.252 62,71.5C 59.6302,64.5316 60.2968,57.865 64,51.5C 66.3333,48.5 68.6667,45.5 71,42.5C 74.3575,39.9688 77.5242,37.3021 80.5,34.5 Z"/></g>
<g><path style="opacity:1" fill="#fea700" d="M 85.5,34.5 C 90.9885,34.504 92.8219,37.1707 91,42.5C 86.783,48.3848 81.6163,53.2182 75.5,57C 73.5,57.6667 71.5,57.6667 69.5,57C 71.3333,55.1667 73.1667,53.3333 75,51.5C 78.0419,45.5262 81.5419,39.8596 85.5,34.5 Z"/></g>
<g><path style="opacity:1" fill="#fea700" d="M 99.5,35.5 C 104.831,33.7057 109.831,34.539 114.5,38C 109.156,39.0191 104.156,38.1858 99.5,35.5 Z"/></g>
<g><path style="opacity:1" fill="#fea700" d="M 95.5,36.5 C 98.3567,39.5464 100.19,43.2131 101,47.5C 101.667,53.5 101.667,59.5 101,65.5C 96.7193,72.1146 92.0526,78.4479 87,84.5C 84.4527,87.7261 82.9527,91.3928 82.5,95.5C 86.7507,96.2259 90.4174,94.8926 93.5,91.5C 97.7796,85.2754 101.28,78.6087 104,71.5C 111.998,61.7377 122.165,58.5711 134.5,62C 142.673,66.8883 141.673,68.8883 131.5,68C 120.839,71.991 113.006,79.1577 108,89.5C 103.254,95.2039 97.254,98.5372 90,99.5C 88.1063,99.4202 86.2729,99.0869 84.5,98.5C 83.7727,102.956 83.7727,107.289 84.5,111.5C 78.2708,102.381 78.1042,93.0477 84,83.5C 89.0607,78.3733 93.394,72.7066 97,66.5C 97.9565,63.0697 98.4565,59.5697 98.5,56C 97.7352,49.4469 96.7352,42.9469 95.5,36.5 Z"/></g>
<g><path style="opacity:1" fill="#fea700" d="M 52.5,37.5 C 56.5841,36.9453 57.2508,37.9453 54.5,40.5C 51.308,43.5951 47.6413,45.9284 43.5,47.5C 39.8137,51.3519 36.3137,55.3519 33,59.5C 35.3955,48.6005 41.8955,41.2672 52.5,37.5 Z"/></g>
<g><path style="opacity:1" fill="#fea700" d="M 121.5,41.5 C 128.067,39.6646 134.4,40.4979 140.5,44C 142.683,46.3504 145.016,48.517 147.5,50.5C 149.117,52.6316 149.617,54.9649 149,57.5C 147.833,55 146,53.1667 143.5,52C 134.612,51.3865 127.278,47.8865 121.5,41.5 Z"/></g>
<g><path style="opacity:1" fill="#fefffe" d="M 147.5,82.5 C 150.85,82.335 154.183,82.5017 157.5,83C 145.223,86.9436 136.389,94.7769 131,106.5C 125.299,126.535 112.466,139.702 92.5,146C 82.5064,147.039 72.5064,148.039 62.5,149C 52.6869,151.313 44.8536,156.48 39,164.5C 35.6966,169.969 32.1966,175.302 28.5,180.5C 11.1172,164.692 3.11715,145.025 4.5,121.5C 28.4624,108.389 52.4624,108.222 76.5,121C 85.1434,123.838 93.1434,122.671 100.5,117.5C 109.951,108.259 119.618,99.2593 129.5,90.5C 135.329,87.2326 141.329,84.5659 147.5,82.5 Z"/></g>
<g><path style="opacity:1" fill="#002b72" d="M 160.5,85.5 C 161.662,102.328 161.828,119.328 161,136.5C 158.287,148.64 153.62,159.974 147,170.5C 120.576,201.898 88.0761,210.398 49.5,196C 42.6389,192.478 36.3055,188.145 30.5,183C 33.9576,176.582 37.791,170.415 42,164.5C 48.1887,157.822 55.6887,153.322 64.5,151C 89.8153,153.575 110.315,145.075 126,125.5C 130.037,115.993 134.37,106.66 139,97.5C 145.012,91.2483 152.179,87.2483 160.5,85.5 Z"/></g>
<g><path style="opacity:1" fill="#fefffe" d="M -0.5,131.5 C 6.67281,171.67 30.0061,196.67 69.5,206.5C 46.1667,206.5 22.8333,206.5 -0.5,206.5C -0.5,181.5 -0.5,156.5 -0.5,131.5 Z"/></g>
<g><path style="opacity:1" fill="#fefffe" d="M 165.5,133.5 C 165.5,157.833 165.5,182.167 165.5,206.5C 142.167,206.5 118.833,206.5 95.5,206.5C 134.142,196.858 157.475,172.524 165.5,133.5 Z"/></g>
</svg>

<svg xmlns="http://www.w3.org/2000/svg" width="166" height="207" style="shape-rendering:geometricPrecision;text-rendering:geometricPrecision;image-rendering:optimizeQuality;fill-rule:evenodd;clip-rule:evenodd"><path style="opacity:1" d="M-.5-.5h166v134c-8.025 39.024-31.358 63.358-70 73h-26c-39.494-9.83-62.827-34.83-70-75V-.5z"/><path style="opacity:1" fill="#e10a15" d="M3.5 3.5h158c.167 26.002 0 52.002-.5 78a141.762 141.762 0 0 0-9-2 89.023 89.023 0 0 0-22.5 7.5 280.028 280.028 0 0 1-37 32 49.226 49.226 0 0 1-14 0c-11.499-6.458-23.832-9.958-37-10.5-12.955.989-25.289 4.322-37 10-1-38.328-1.333-76.66-1-115z"/><path style="opacity:1" fill="#010000" d="M99.5 9.5c2.422 1.192 3.422 3.192 3 6a497.665 497.665 0 0 0-1.5 14 4.455 4.455 0 0 0-1.5 2c7.038-.344 13.038 1.823 18 6.5 11.212-1.54 21.045 1.293 29.5 8.5 4.302 5.007 5.469 10.673 3.5 17a40.263 40.263 0 0 0-6-8.5 128.736 128.736 0 0 0-16.5-5.5c-3.922-1.755-7.089-4.421-9.5-8a568.942 568.942 0 0 1-19-2.5 33.272 33.272 0 0 1 3.5 8.5c1.681 9.212.348 17.879-4 26-5.85 5.209-10.35 11.376-13.5 18.5 3.198.854 6.03-.312 8.5-3.5 3.52-6.88 6.852-13.88 10-21 8.801-7.886 18.968-10.386 30.5-7.5 4.865 2.032 8.198 5.532 10 10.5l-1.5 1c-9.17-3.103-17.17-1.103-24 6-5.107 8.44-11.607 15.607-19.5 21.5-4.422 2.104-9.088 2.937-14 2.5a32.175 32.175 0 0 1 1.5 11c-1.7.906-3.533 1.239-5.5 1-2.381-6.412-3.548-13.078-3.5-20a35.682 35.682 0 0 1 3.5-10 318.725 318.725 0 0 0 13.5-17 46.322 46.322 0 0 0 1-17c-1.342 6.742-3.675 13.076-7 19-4.322 6-9.988 10-17 12-9.008-1.51-13.508-6.843-13.5-16 1.656-11.837 7.322-21.337 17-28.5-5.02 1.914-10.353 2.914-16 3a52.473 52.473 0 0 1-16 11A110.303 110.303 0 0 1 32 63.5c-1.54-2.455-1.874-5.121-1-8C36.224 41.931 46.057 35.098 60.5 35c7.232-7.682 15.899-9.849 26-6.5-.202-2.49.298-4.823 1.5-7a195.113 195.113 0 0 0 11.5-12z"/><path style="opacity:1" fill="#fea700" d="M99.5 11.5c1.314 5.605.98 11.272-1 17-2.562-4.142-5.728-4.808-9.5-2-.52-1.789-.187-3.456 1-5 4.068-2.566 7.235-5.9 9.5-10z"/><path style="opacity:1" fill="#fea700" d="M91.5 26.5c5.793.922 7.127 3.756 4 8.5-7.157-.294-8.49-3.128-4-8.5zM73.5 28.5c4.217.09 8.217.923 12 2.5-5.929-.134-11.262 1.532-16 5a16.25 16.25 0 0 1-8 0c3.593-3.289 7.593-5.789 12-7.5zM80.5 34.5a2.428 2.428 0 0 1 2 .5A89.1 89.1 0 0 0 75 48.5a119.63 119.63 0 0 1-9.5 9c4.653 2.56 9.32 2.393 14-.5A138.24 138.24 0 0 0 93 42.5c1.383 15.9-4.784 27.733-18.5 35.5-5.94 1.419-10.107-.748-12.5-6.5-2.37-6.968-1.703-13.635 2-20l7-9a113.562 113.562 0 0 0 9.5-8z"/><path style="opacity:1" fill="#fea700" d="M85.5 34.5c5.489.004 7.322 2.67 5.5 8-4.217 5.885-9.384 10.718-15.5 14.5-2 .667-4 .667-6 0l5.5-5.5a120.943 120.943 0 0 1 10.5-17zM99.5 35.5c5.331-1.794 10.331-.961 15 2.5-5.344 1.02-10.344.186-15-2.5zM95.5 36.5c2.857 3.046 4.69 6.713 5.5 11 .667 6 .667 12 0 18a194.575 194.575 0 0 1-14 19c-2.547 3.226-4.047 6.893-4.5 11 4.25.726 7.917-.607 11-4a95.257 95.257 0 0 0 10.5-20c7.998-9.762 18.165-12.929 30.5-9.5 8.173 4.888 7.173 6.888-3 6-10.661 3.991-18.494 11.158-23.5 21.5-4.746 5.704-10.746 9.037-18 10a20.109 20.109 0 0 1-5.5-1c-.727 4.456-.727 8.789 0 13-6.23-9.119-6.396-18.452-.5-28a84.614 84.614 0 0 0 13-17A40.778 40.778 0 0 0 98.5 56a269.796 269.796 0 0 0-3-19.5zM52.5 37.5c4.084-.555 4.75.445 2 3a31.906 31.906 0 0 1-11 7 178.338 178.338 0 0 0-10.5 12c2.395-10.9 8.895-18.233 19.5-22zM121.5 41.5c6.567-1.835 12.9-1.002 19 2.5a64.253 64.253 0 0 0 7 6.5c1.617 2.132 2.117 4.465 1.5 7-1.167-2.5-3-4.333-5.5-5.5-8.888-.614-16.222-4.114-22-10.5z"/><path style="opacity:1" fill="#fefffe" d="M147.5 82.5c3.35-.165 6.683.002 10 .5-12.277 3.944-21.111 11.777-26.5 23.5-5.701 20.035-18.534 33.202-38.5 39.5a3840.974 3840.974 0 0 1-30 3c-9.813 2.313-17.646 7.48-23.5 15.5a255.804 255.804 0 0 1-10.5 16c-17.383-15.808-25.383-35.475-24-59 23.962-13.111 47.962-13.278 72-.5 8.643 2.838 16.643 1.671 24-3.5a809.928 809.928 0 0 1 29-27c5.829-3.267 11.829-5.934 18-8z"/><path style="opacity:1" fill="#002b72" d="M160.5 85.5c1.162 16.828 1.328 33.828.5 51a107.403 107.403 0 0 1-14 34c-26.424 31.398-58.924 39.898-97.5 25.5a91.637 91.637 0 0 1-19-13A175.19 175.19 0 0 1 42 164.5c6.189-6.678 13.689-11.178 22.5-13.5 25.315 2.575 45.815-5.925 61.5-25.5a464.564 464.564 0 0 1 13-28c6.012-6.252 13.179-10.252 21.5-12z"/><path style="opacity:1" fill="#fefffe" d="M-.5 131.5c7.173 40.17 30.506 65.17 70 75h-70v-75zM165.5 133.5v73h-70c38.642-9.642 61.975-33.976 70-73z"/></svg>
